Numix/16/status/indicator-keyboard-Lv.svg

<?xml version="1.0" encoding="UTF-8" standalone="no"?>
<svg
   xmlns:dc="http://purl.org/dc/elements/1.1/"
   xmlns:cc="http://creativecommons.org/ns#"
   xmlns:rdf="http://www.w3.org/1999/02/22-rdf-syntax-ns#"
   xmlns:svg="http://www.w3.org/2000/svg"
   xmlns="http://www.w3.org/2000/svg"
   xmlns:sodipodi="http://sodipodi.sourceforge.net/DTD/sodipodi-0.dtd"
   xmlns:inkscape="http://www.inkscape.org/namespaces/inkscape"
   viewBox="0 0 16 16"
   id="svg2"
   version="1.1"
   inkscape:version="0.91 r13725"
   sodipodi:docname="indicator-keyboard-Lv.svg">
  <metadata
     id="metadata13">
    <rdf:RDF>
      <cc:Work
         rdf:about="">
        <dc:format>image/svg+xml</dc:format>
        <dc:type
           rdf:resource="http://purl.org/dc/dcmitype/StillImage" />
      </cc:Work>
    </rdf:RDF>
  </metadata>
  <defs
     id="defs11" />
  <sodipodi:namedview
     pagecolor="#ffffff"
     bordercolor="#666666"
     borderopacity="1"
     objecttolerance="10"
     gridtolerance="10"
     guidetolerance="10"
     inkscape:pageopacity="0"
     inkscape:pageshadow="2"
     inkscape:window-width="459"
     inkscape:window-height="369"
     id="namedview9"
     showgrid="false"
     inkscape:zoom="14.75"
     inkscape:cx="8"
     inkscape:cy="8"
     inkscape:window-x="65"
     inkscape:window-y="24"
     inkscape:window-maximized="0"
     inkscape:current-layer="svg2" />
  <path
     style="fill:#ececec;fill-opacity:1"
     d="M 1.5996094 0 C 0.71320937 2.9605947e-16 0 0.71320937 0 1.5996094 L 0 14.400391 C 2.9605947e-16 15.286791 0.71320937 16 1.5996094 16 L 14.400391 16 C 15.286791 16 16 15.286791 16 14.400391 L 16 1.5996094 C 16 0.71320937 15.286791 0 14.400391 0 L 1.5996094 0 z M 4.2089844 4.8808594 L 4.8203125 4.8808594 L 4.8203125 10.587891 L 7.7539062 10.587891 L 7.7539062 11.119141 L 4.2089844 11.119141 L 4.2089844 4.8808594 z M 7.8320312 6.4648438 L 8.453125 6.4648438 C 8.525125 6.7828438 8.6128437 7.1261875 8.7148438 7.4921875 C 8.8228437 7.8521875 8.9366406 8.2122656 9.0566406 8.5722656 C 9.1826406 8.9262656 9.3113594 9.2714219 9.4433594 9.6074219 C 9.5753594 9.937422 9.7040781 10.230281 9.8300781 10.488281 C 9.956078 10.230281 10.084797 9.937422 10.216797 9.6074219 C 10.348797 9.2714219 10.475703 8.9262656 10.595703 8.5722656 C 10.721703 8.2122656 10.8355 7.8521875 10.9375 7.4921875 C 11.0455 7.1261875 11.135031 6.7828437 11.207031 6.4648438 L 11.791016 6.4648438 C 11.683016 6.8908438 11.563641 7.3106094 11.431641 7.7246094 C 11.299641 8.1386094 11.159766 8.5454063 11.009766 8.9414062 C 10.865766 9.3374062 10.712781 9.7179842 10.550781 10.083984 C 10.394781 10.449984 10.241797 10.795141 10.091797 11.119141 L 9.5332031 11.119141 C 9.3772031 10.795141 9.2204531 10.449984 9.0644531 10.083984 C 8.9084531 9.7179842 8.7554688 9.3374062 8.6054688 8.9414062 C 8.4614687 8.5454062 8.3234063 8.1386094 8.1914062 7.7246094 C 8.0594063 7.3106094 7.9400312 6.8908437 7.8320312 6.4648438 z "
     id="path4" />
</svg>

<svg xmlns="http://www.w3.org/2000/svg" viewBox="0 0 16 16">
 <path d="m 1.6 0 c -0.886 0 -1.6 0.713 -1.6 1.6 l 0 12.801 c 0 0.886 0.713 1.6 1.6 1.6 l 12.801 0 c 0.886 0 1.6 -0.713 1.6 -1.6 l 0 -12.801 c 0 -0.886 -0.713 -1.6 -1.6 -1.6 l -12.801 0 z m 2.609 4.881 l 0.611 0 l 0 5.707 l 2.934 0 l 0 0.531 l -3.545 0 l 0 -6.238 z m 3.623 1.584 l 0.621 0 c 0.072 0.318 0.16 0.661 0.262 1.027 c 0.108 0.36 0.222 0.72 0.342 1.08 c 0.126 0.354 0.255 0.699 0.387 1.035 c 0.132 0.33 0.261 0.623 0.387 0.881 c 0.126 -0.258 0.255 -0.551 0.387 -0.881 c 0.132 -0.336 0.259 -0.681 0.379 -1.035 c 0.126 -0.36 0.24 -0.72 0.342 -1.08 c 0.108 -0.366 0.198 -0.709 0.27 -1.027 l 0.584 0 c -0.108 0.426 -0.227 0.846 -0.359 1.26 c -0.132 0.414 -0.272 0.821 -0.422 1.217 c -0.144 0.396 -0.297 0.777 -0.459 1.143 c -0.156 0.366 -0.309 0.711 -0.459 1.035 l -0.559 0 c -0.156 -0.324 -0.313 -0.669 -0.469 -1.035 c -0.156 -0.366 -0.309 -0.747 -0.459 -1.143 c -0.144 -0.396 -0.282 -0.803 -0.414 -1.217 c -0.132 -0.414 -0.251 -0.834 -0.359 -1.26 z" style="fill:#ececec;fill-opacity:1"/>
</svg>
